assets/features/channel/southeast-asia/permata-bank.svg

<svg width="80" height="80" viewBox="0 0 80 80" fill="none" xmlns="http://www.w3.org/2000/svg">
<rect width="80" height="80" rx="8" fill="#0064FF"/>
<path fill-rule="evenodd" clip-rule="evenodd" d="M58.4 44.2586C58.4 48.9348 56.0092 53.1485 51.7161 56.0775L39.9935 64.0038L28.2839 56.0775C23.9908 53.1485 21.6 48.9476 21.6 44.2586C21.6 41.2011 22.5769 38.3749 25.0962 35.1375L40.0064 15.9961L54.9166 35.1375C57.4231 38.3749 58.4 41.2011 58.4 44.2586ZM36.4459 51.2857L28.8494 42.9996C27.4998 41.4966 26.8828 40.4817 26.5101 39.454C25.6489 41.0213 25.1604 42.7042 25.1604 44.4385C25.1604 47.8043 27.0628 51.1059 30.4433 53.3283L37.6156 58.1329V55.3067C37.6156 53.5082 37.667 52.6603 36.4459 51.2857ZM40.0064 49.9625L48.0399 41.2011C49.9423 39.1714 50.315 38.028 50.315 36.8204C50.315 35.6771 50.0065 34.6622 48.5926 32.7994L40.0064 21.8798L31.4202 32.7994C29.942 34.6622 29.6978 35.6771 29.6978 36.8204C29.6978 38.028 30.0705 39.1585 31.9729 41.2011L40.0064 49.9625ZM54.8524 44.4385C54.8524 42.6913 54.3639 41.0084 53.5027 39.454C53.13 40.4817 52.5259 41.4966 51.1762 42.9996L43.5669 51.2857C42.3329 52.6603 42.3972 53.5082 42.3972 55.3067V58.1329L49.5695 53.3283C52.95 51.1059 54.8524 47.8043 54.8524 44.4385Z" fill="white"/>
</svg>

<svg xmlns="http://www.w3.org/2000/svg" width="80" height="80" fill="none" viewBox="0 0 80 80"><rect width="80" height="80" fill="#0064ff" rx="8"/><path fill="#fff" fill-rule="evenodd" d="M58.4 44.259c0 4.676-2.39 8.89-6.684 11.819l-11.723 7.926-11.71-7.927C23.992 53.15 21.6 48.948 21.6 44.26c0-3.058.977-5.884 3.496-9.121l14.91-19.142 14.91 19.142c2.507 3.237 3.484 6.063 3.484 9.12m-21.954 7.027L28.849 43c-1.35-1.503-1.966-2.518-2.339-3.546-.861 1.567-1.35 3.25-1.35 4.984 0 3.366 1.903 6.668 5.283 8.89l7.173 4.805v-2.826c0-1.799.051-2.647-1.17-4.021m3.56-1.324 8.034-8.76c1.902-2.03 2.275-3.174 2.275-4.382 0-1.143-.308-2.158-1.722-4.02l-8.587-10.92L31.42 32.8c-1.478 1.862-1.722 2.877-1.722 4.02 0 1.208.372 2.338 2.275 4.381zm14.846-5.524c0-1.747-.488-3.43-1.35-4.984-.372 1.028-.976 2.043-2.326 3.546l-7.61 8.286c-1.233 1.374-1.169 2.222-1.169 4.02v2.827l7.172-4.805c3.381-2.222 5.283-5.524 5.283-8.89" clip-rule="evenodd"/></svg>
